layouts/icon-pack/weapon_dagger.svg

<?xml version="1.0" encoding="UTF-8"?>
<svg width="1200pt" height="1200pt" version="1.1" viewBox="0 0 1200 1200" xmlns="http://www.w3.org/2000/svg">
 <g fill="#fff">
  <path d="m283.9 519.8c-15.273-12.012-35.094-16.617-54.102-12.582-19.004 4.0391-35.238 16.305-44.312 33.484-9.0742 17.184-10.055 37.508-2.6719 55.48 14.32 36.797 51.328 71.414 51.328 71.414l75.234 75.164c7.3594 7.3438 11.75 17.148 12.324 27.527 0.57422 10.383-2.7031 20.609-9.207 28.723l-150.12 187.71c-7.1719 9.0977-18.066 14.469-29.648 14.625-19.141 0.0625-37.281 8.5508-49.594 23.203-14.621 17.383-19.191 41.102-12.074 62.672 7.1172 21.57 24.902 37.91 47 43.18 22.094 5.2695 45.34-1.2891 61.426-17.328 12.051-12.023 18.914-28.285 19.125-45.305 0.11328-11.754 5.5-22.836 14.672-30.188l187.73-150c8.1133-6.5 18.344-9.7734 28.727-9.1953 10.379 0.57813 20.184 4.9727 27.523 12.336l75.141 75.141s34.641 37.008 71.438 51.328c20.965 8.6328 44.906 5.8047 63.285-7.4766 18.379-13.277 28.578-35.121 26.965-57.734-1.6133-22.617-14.812-42.789-34.891-53.328-20.074-10.535-44.176-9.9336-63.703 1.5859-3.625 2.082-7.918 2.668-11.969 1.6328-4.0508-1.0391-7.5352-3.6172-9.7109-7.1875l-97.125-157.03c-3.5547-5.7695-8.4102-10.625-14.18-14.18l-157.03-97.102c-3.5664-2.1797-6.1406-5.6641-7.1719-9.7148-1.0352-4.0508-0.44531-8.3438 1.6406-11.965 8.082-13.688 10.914-29.848 7.957-45.469-2.9531-15.621-11.488-29.633-24.012-39.422z"/>
  <path d="m1118.6 69.352-745.08 512.37c-4.6445 3.1992-7.3945 8.4922-7.3438 14.133 0.050781 5.6367 2.8984 10.879 7.6016 13.992 33.727 22.242 98.203 63.68 111.09 71.953l295.83-295.8c5.9414-5.9414 14.602-8.2617 22.715-6.0859 8.1172 2.1758 14.453 8.5117 16.629 16.629 2.1758 8.1133-0.14453 16.773-6.0859 22.715l-295.85 295.83c8.2734 12.891 49.734 77.344 71.977 111.09 3.1133 4.7031 8.3555 7.5508 13.992 7.6016 5.6406 0.050781 10.934-2.6992 14.133-7.3438l512.39-745.1c2.3398-3.4258 1.9062-8.0352-1.0312-10.969-2.9375-2.9297-7.5469-3.3555-10.969-1.0078z"/>
 </g>
</svg>

<?xml version="1.0" encoding="UTF-8" standalone="no"?>
<!DOCTYPE svg PUBLIC "-//W3C//DTD SVG 1.1//EN" "http://www.w3.org/Graphics/SVG/1.1/DTD/svg11.dtd">
<svg width="100%" height="100%" viewBox="0 0 513 512" version="1.1" xmlns="http://www.w3.org/2000/svg" xmlns:xlink="http://www.w3.org/1999/xlink" xml:space="preserve" xmlns:serif="http://www.serif.com/" style="fill-rule:evenodd;clip-rule:evenodd;stroke-linejoin:round;stroke-miterlimit:2;">
    <g transform="matrix(1,0,0,1,-67.7589,-67.8475)">
        <g transform="matrix(0.481049,0,0,0.481049,35.1635,35.2095)">
            <path d="M283.9,519.8C268.627,507.788 248.806,503.183 229.798,507.218C210.794,511.257 194.56,523.523 185.486,540.702C176.412,557.886 175.431,578.21 182.814,596.182C197.134,632.979 234.142,667.596 234.142,667.596L309.376,742.76C316.736,750.104 321.126,759.908 321.7,770.287C322.274,780.67 318.997,790.896 312.493,799.01L162.373,986.72C155.201,995.818 144.307,1001.19 132.725,1001.35C113.584,1001.41 95.444,1009.9 83.131,1024.55C68.51,1041.93 63.94,1065.65 71.057,1087.22C78.174,1108.79 95.959,1125.13 118.057,1130.4C140.151,1135.67 163.397,1129.11 179.483,1113.07C191.534,1101.05 198.397,1084.79 198.608,1067.77C198.721,1056.01 204.108,1044.93 213.28,1037.58L401.01,887.579C409.123,881.079 419.354,877.806 429.737,878.384C440.116,878.962 449.921,883.356 457.26,890.72L532.401,965.861C532.401,965.861 567.042,1002.87 603.839,1017.19C624.804,1025.82 648.745,1022.99 667.124,1009.71C685.503,996.435 695.702,974.591 694.089,951.978C692.476,929.361 679.277,909.189 659.198,898.65C639.124,888.115 615.022,888.717 595.495,900.236C591.87,902.318 587.577,902.904 583.526,901.869C579.475,900.83 575.991,898.252 573.815,894.681L476.69,737.651C473.135,731.882 468.28,727.026 462.51,723.471L305.48,626.369C301.914,624.19 299.34,620.705 298.308,616.655C297.273,612.604 297.863,608.311 299.949,604.69C308.031,591.002 310.863,574.842 307.906,559.221C304.953,543.6 296.418,529.588 283.894,519.799L283.9,519.8Z" style="fill:white;fill-rule:nonzero;"/>
            <path d="M1118.6,69.352L373.52,581.722C368.875,584.921 366.125,590.214 366.176,595.855C366.227,601.492 369.075,606.734 373.778,609.847C407.505,632.089 471.981,673.527 484.868,681.8L780.698,386C786.639,380.059 795.3,377.738 803.413,379.914C811.53,382.09 817.866,388.426 820.042,396.543C822.218,404.656 819.897,413.316 813.956,419.258L518.106,715.088C526.379,727.979 567.84,792.432 590.083,826.178C593.196,830.881 598.438,833.729 604.075,833.78C609.715,833.83 615.009,831.08 618.208,826.436L1130.6,81.336C1132.94,77.91 1132.5,73.301 1129.57,70.367C1126.63,67.437 1122.02,67.011 1118.6,69.359L1118.6,69.352Z" style="fill:white;fill-rule:nonzero;"/>
        </g>
    </g>
</svg>
